apollo-logo.svg

<svg height="26" viewBox="0 0 152 40" fill="none" xmlns="http://www.w3.org/2000/svg">
  <path
    d="M19.5993 0.0862365L19.605 13.2568C19.6058 15.3375 17.4222 16.6715 15.6079 15.6986L2.58376 8.7153C3.57706 7.05795 4.82616 5.57609 6.27427 4.32386L16.489 13.8945C17.0303 14.4015 17.8835 13.8518 17.6605 13.1398L13.6992 0.493553C15.0326 0.17147 16.4233 0 17.8536 0C18.4428 0 19.0248 0.0296814 19.5993 0.0862365Z"
    fill="#F8FF2C"></path>
  <path
    d="M16.0635 36.1087L16.0578 23.0046C16.057 20.9239 18.2407 19.5898 20.0549 20.5627L33.0838 27.5486C32.0838 29.2016 30.8289 30.6786 29.3751 31.925L19.1738 22.3668C18.6326 21.8598 17.7793 22.4095 18.0023 23.1215L21.9486 35.72C20.6338 36.0329 19.263 36.1989 17.8539 36.1989C17.2497 36.1989 16.6523 36.1683 16.0635 36.1087Z"
    fill="#F8FF2C"></path>
  <path
    d="M22.0105 16.77L31.4705 6.39392C30.2362 4.92008 28.7742 3.6486 27.1384 2.63702L20.2306 15.8767C19.2709 17.716 20.5871 19.9298 22.6396 19.9288L35.6183 19.923C35.6775 19.3234 35.7082 18.7151 35.7082 18.0996C35.7082 16.6683 35.5436 15.2761 35.2338 13.9406L22.7549 17.9576C22.0526 18.1837 21.5103 17.3187 22.0105 16.77Z"
    fill="#F8FF2C"></path>
  <path
    d="M0.0842758 16.3383L13.0237 16.3325C15.0764 16.3317 16.3923 18.5454 15.4327 20.3846L8.56047 33.5561C6.93095 32.547 5.47394 31.2801 4.24344 29.8121L13.653 19.4914C14.1531 18.9427 13.6107 18.0777 12.9084 18.3037L0.485078 22.3029C0.168551 20.954 0 19.5467 0 18.0994C0 17.5051 0.0290814 16.9177 0.0842758 16.3383Z"
    fill="#F8FF2C"></path>
  <path fill-rule="evenodd" clip-rule="evenodd"
    d="M57.0218 3.78205H60.6172L72.556 32.4477H68.5958L64.912 23.327H52.6694L49.1387 32.4477H45.3968L57.0218 3.78205ZM58.6968 8.35018L54.052 19.9528H63.4944L58.6968 8.35018Z"
    fill="#000000"></path>
  <path fill-rule="evenodd" clip-rule="evenodd"
    d="M96.0131 22.4209C96.0131 16.3054 100.173 11.8668 105.904 11.8668C111.66 11.8668 115.838 16.3054 115.838 22.4209C115.838 28.5365 111.66 32.9753 105.904 32.9753C100.173 32.9753 96.0131 28.5365 96.0131 22.4209ZM99.7588 22.4209C99.7588 27.0223 102.114 29.8808 105.904 29.8808C109.721 29.8808 112.092 27.0223 112.092 22.4209C112.092 17.8197 109.721 14.9613 105.904 14.9613C102.114 14.9613 99.7588 17.8197 99.7588 22.4209Z"
    fill="#000000"></path>
  <path fill-rule="evenodd" clip-rule="evenodd"
    d="M142.109 11.8668C136.353 11.8668 132.175 16.3054 132.175 22.4209C132.175 28.5365 136.353 32.9753 142.109 32.9753C147.84 32.9753 152 28.5365 152 22.4209C152 16.3054 147.84 11.8668 142.109 11.8668ZM142.109 29.8808C138.292 29.8808 135.92 27.0223 135.92 22.4209C135.92 17.8197 138.292 14.9613 142.109 14.9613C145.9 14.9613 148.254 17.8197 148.254 22.4209C148.254 27.0223 145.9 29.8808 142.109 29.8808Z"
    fill="#000000"></path>
  <path d="M122.206 32.4477H118.59V3.78205H122.206V32.4477Z" fill="#000000"></path>
  <path d="M125.807 32.4477H129.424V3.78205H125.807V32.4477Z" fill="#000000"></path>
  <path fill-rule="evenodd" clip-rule="evenodd"
    d="M84.6895 32.9751C81.7329 32.9751 79.5182 31.5396 78.241 29.7601V40H74.6249V12.3935H78.241V15.1162C79.521 13.318 81.7375 11.8667 84.6895 11.8667C90.1907 11.8667 93.8867 16.1079 93.8867 22.4208C93.8867 28.7337 90.1907 32.9751 84.6895 32.9751ZM84.3427 15.0488C80.6409 15.0488 78.081 17.8451 78.081 21.8605V22.9813C78.081 26.9965 80.6409 29.7926 84.3427 29.7926C87.9732 29.7926 90.1408 27.0369 90.1408 22.4208C90.1408 17.8047 87.9732 15.0488 84.3427 15.0488Z"
    fill="#000000"></path>
</svg>

<svg xmlns="http://www.w3.org/2000/svg" height="26" fill="none" viewBox="0 0 152 40"><path fill="#F8FF2C" d="m19.6.086.005 13.17c0 2.082-2.183 3.416-3.997 2.443L2.584 8.715a18.1 18.1 0 0 1 3.69-4.391l10.215 9.57c.541.508 1.395-.042 1.171-.754L13.7.494a17.7 17.7 0 0 1 5.9-.408m-3.536 36.023-.006-13.104c-.001-2.081 2.183-3.415 3.997-2.442l13.029 6.986a18.1 18.1 0 0 1-3.709 4.376l-10.201-9.558c-.541-.507-1.395.043-1.172.755L21.95 35.72a17.7 17.7 0 0 1-5.885.389M22.01 16.77l9.46-10.376a18 18 0 0 0-4.332-3.757l-6.907 13.24c-.96 1.839.356 4.053 2.409 4.052l12.978-.006a18.6 18.6 0 0 0-.384-5.982l-12.48 4.017c-.701.226-1.244-.64-.744-1.188M.084 16.338l12.94-.006c2.052 0 3.368 2.213 2.409 4.053L8.56 33.556a18 18 0 0 1-4.317-3.744l9.41-10.32c.5-.55-.042-1.414-.745-1.188L.485 22.303a18.4 18.4 0 0 1-.4-5.965"/><path fill="#000" fill-rule="evenodd" d="M57.022 3.782h3.595l11.939 28.666h-3.96l-3.684-9.121H52.669l-3.53 9.12h-3.742zm1.675 4.568-4.645 11.603h9.442zm37.316 14.07c0-6.115 4.16-10.553 9.891-10.553 5.756 0 9.934 4.438 9.934 10.554s-4.178 10.554-9.934 10.554c-5.731 0-9.89-4.439-9.89-10.554m3.746 0c0 4.602 2.355 7.46 6.145 7.46 3.817 0 6.188-2.858 6.188-7.46 0-4.6-2.371-7.459-6.188-7.459-3.79 0-6.145 2.859-6.145 7.46m42.349-10.555c-5.756 0-9.934 4.438-9.934 10.554s4.178 10.554 9.934 10.554c5.731 0 9.891-4.439 9.891-10.554s-4.16-10.554-9.891-10.554m0 18.014c-3.817 0-6.189-2.859-6.189-7.46s2.372-7.46 6.189-7.46c3.791 0 6.145 2.859 6.145 7.46s-2.354 7.46-6.145 7.46" clip-rule="evenodd"/><path fill="#000" d="M122.206 32.448h-3.616V3.782h3.616zm3.601 0h3.617V3.782h-3.617z"/><path fill="#000" fill-rule="evenodd" d="M84.69 32.975c-2.957 0-5.172-1.435-6.449-3.215V40h-3.616V12.394h3.616v2.722c1.28-1.798 3.496-3.25 6.448-3.25 5.502 0 9.198 4.242 9.198 10.555s-3.696 10.554-9.198 10.554m-.347-17.926c-3.702 0-6.262 2.796-6.262 6.811v1.121c0 4.015 2.56 6.812 6.262 6.812 3.63 0 5.798-2.756 5.798-7.372s-2.168-7.372-5.798-7.372" clip-rule="evenodd"/></svg>
